svg/fluentui-system-icons/ic_fluent_text_field_20_regular.svg

<svg width="20" height="20" viewBox="0 0 20 20" fill="none" xmlns="http://www.w3.org/2000/svg">
<path d="M10.5 6H13V6.5C13 6.77614 13.2239 7 13.5 7C13.7761 7 14 6.77614 14 6.5V5.5C14 5.22386 13.7761 5 13.5 5H6.5C6.22386 5 6 5.22386 6 5.5V6.5C6 6.77614 6.22386 7 6.5 7C6.77614 7 7 6.77614 7 6.5V6H9.5V14H9C8.72386 14 8.5 14.2239 8.5 14.5C8.5 14.7761 8.72386 15 9 15H11C11.2761 15 11.5 14.7761 11.5 14.5C11.5 14.2239 11.2761 14 11 14H10.5V6ZM2 6C2 4.34315 3.34315 3 5 3H15C16.6569 3 18 4.34315 18 6V14C18 15.6569 16.6569 17 15 17H5C3.34315 17 2 15.6569 2 14V6ZM5 4C3.89543 4 3 4.89543 3 6V14C3 15.1046 3.89543 16 5 16H15C16.1046 16 17 15.1046 17 14V6C17 4.89543 16.1046 4 15 4H5Z" fill="#212121"/>
</svg>

<svg xmlns="http://www.w3.org/2000/svg" width="20" height="20"><path d="M10.5 6H13v.5a.5.5 0 0 0 1 0v-1a.5.5 0 0 0-.5-.5h-7a.5.5 0 0 0-.5.5v1a.5.5 0 0 0 1 0V6h2.5v8H9a.5.5 0 0 0 0 1h2a.5.5 0 0 0 0-1h-.5V6ZM2 6a3 3 0 0 1 3-3h10a3 3 0 0 1 3 3v8a3 3 0 0 1-3 3H5a3 3 0 0 1-3-3V6Zm3-2a2 2 0 0 0-2 2v8a2 2 0 0 0 2 2h10a2 2 0 0 0 2-2V6a2 2 0 0 0-2-2H5Z"/></svg>
